X: 902
T: Göze mi Geldim
C: Osman Nihat Akın
O: Turkey
F: http://compmusic.upf.edu/node/140
N: nihavent--sarki--curcuna--goze_mi--osman_nihat_akin
N: makam= nihavent
N: form= sarki
N: usul= curcuna = 10/8
M: 10/8
L: 1/16
K: C _B _e  
Q: 1/4=180
%%MIDI tuningsystem comma53
e8-e2e2 d2d2 c2B2  | d8-d2d2 c2B2 A2G2  | \
w:  ARANAĞME  |   | 
G2^F2 G2A2 B2^cd edc4z2  | 
w:   | 
d2e2 ^f2g2 a2f2 e2d4z2  | e8-e2e2 d2d2 c2B2  | \
w:   |   | 
d8-d2d2 c2B2 A2G2  | 
w:   | 
c2d2 e2d2 c2B2 c2d2 c2B2  | A2B2 d2c2 B2B2 A2G4z2  | \
w:   |   | 
z4 f2g2 a2f2 g2f2 e2d2  | 
w:  Gö ze  *  mi  *  gel  | 
d18z2  | d2c2 B2B4c2 d2B2 A2G2  | G18z2  | \
w:  dim   |  sen  *  *  mi  u *  nut  |  tun    | 
c6d4d2 c2B2 c2d2  | e18d2  | 
w:  Gel mi yor *  sun_  |  ah   | 
a4 g2g2 ^f2f2 e2e4d2  | d18z2  | c6d4d2 c2B2 c2d2  | \
w:  gel *  mi *  yor *  sun_  |  ah    |  Öy le  ka *  ran  | 
e18d2  | z4 b2a2 g2f2 g2f2 e2d2  | 
w:  lık   |  ge ce  *  ki  *  ru  | 
c8-c2d2 cBB4z2  | A6B4c4B2 A2G2  | d6d2 c2B2 A2B4z2  | \
w:  hum    |  Ol mu yor  sa  |  bah    | 
A4 B2c2 d2B2 A2G4^F2  | 
w:  ol *  mu *  yor  *  sa  | 
G18z2  | g6g4g4^f2 g2a2  | b18z2  | a2b2 c'2a2 g2g2 a2^f2 e2d2  | \
w:  bah    |  Yük sel_ u fuk  |  tan   |  sî *  *  ne *  ni  *  gös  | 
d8-d2a2 g2a4z2  | 
w:  ter    | 
^f6g4f2 e2e4d2  | d8 c2B2 A2B4z2  | d2e2 ^f2g4f2 e2e4d2  | \
w:  Bir  gün  gö *  re  |  yim    |  bir  *  *  gün  gö *  re  | 
d4 e2d2 c2B2 c2d4z2  | 
w:  yim   SAZ  | 
c6d4d2 c2B2 c2d2  | e18d2  | z4 b2a2 g2f2 g2f2 e2d2  | \
w:  Öy le  ka *  ran  |  lık   |  ge ce  *  ki  *  ru  | 
c8-c2d2 cBB4z2  | 
w:  hum    | 
A6B4c4B2 A2G2  | d6d2 c2B2 A2B4z2  | \
w:  Ol mu yor  sa  |  bah    | 
A4 B2c2 d2B2 A2G4^F2  | 
w:  ol *  mu *  yor  *  sa  | 
G18z2  | |


